!!!SOCIAL_FUNCTION:	songs of the drum-presentation ceremony
!!!PDT:	1913
!!!OTL: No_74_Third_Song_of_the_Dog_Feast.krn
!!!REG: Great_Lakes
!!!LANG: Non-Tone
!!!LING_GROUP: Algonquin
**kern	**kern
*staff2	*staff1
=1-	=1-
*clefF4	*clefF4
*k[f#c#]	*k[f#c#]
*M2/4	*M2/4
12GG^/	4d\
12r	.
12GG/	.
12GG^/	4e\
12r	.
12GG/	.
=2	=2
2r	16d\LK
.	[8.d\J
.	4d\]
=3	=3
2r	4d\
.	4d\
=4	=4
2r	16B\LK
.	8.B\J
.	4B\
=5	=5
2r	4d\
.	4e\
=6	=6
2r	16d\LK
.	[8.d\J
.	4d\]
=7	=7
2r	4d\
.	4d\
=8	=8
2r	16B\LK
.	[8.B\J
.	4B\]
=9||	=9||
*M3/4	*M3/4
2.r	4B\
.	4B\
.	12A\L
.	12A\
.	12A\J
=10||	=10||
*M2/4	*M2/4
2r	16G\LK
.	[8.G\J
.	4G\]
=11||	=11||
*M3/4	*M3/4
2.r	4E\
.	4E\
.	12D\L
.	12D\
.	12D\J
=12||	=12||
*M2/4	*M2/4
2r	16BB/LK
.	[8.BB/J
.	4BB/]
=13	=13
2r	16BB/LK
.	8.BB/J
.	4D\
=14	=14
2r	16BB/LK
.	[8.BB/J
.	4BB/]
=15||	=15||
*M3/4	*M3/4
2.r	4G\
.	4G\
.	12E\L
.	12E\
.	12E\J
=16||	=16||
*M2/4	*M2/4
2r	8D\L
.	8D\J
.	8D\L
.	8D\J
=17	=17
2r	[2D\
=18	=18
2r	2D\]
=19||	=19||
*M3/4	*M3/4
2.r	8D/L
.	8BB/J
.	4BB/
.	16D/LK
.	8.BB/J
=20||	=20||
*M2/4	*M2/4
2r	2BB/
=21||	=21||
*M3/4	*M3/4
2.r	4E\
.	4E\
.	12D\L
.	12D\
.	12D\J
=22||	=22||
*M2/4	*M2/4
2r	12BB/L
.	12BB/
.	12BB/J
.	[4BB/
=23	=23
2r	2BB/]
==	==
*-	*-
